icons/alipay-line.svg

<svg xmlns="http://www.w3.org/2000/svg" width="24" height="24" fill="none"><g clip-path="url(#a)"><g><path fill="#121212" d="M18.408 16.79C16.235 15.84 14.688 15.144 13.768 14.704C12.368 16.4 10.896 17.424 8.688 17.424C6.48 17.424 5 16.064 5.176 14.392C5.296 13.296 6.048 11.504 9.304 11.816C11.024 11.976 11.808 12.296 13.216 12.76C13.576 12.096 13.88 11.36 14.104 10.584H7.88V9.968H10.952V8.864H7.2V8.184H10.952V6.592C10.952 6.592 10.984 6.344 11.264 6.344H12.8V8.192H16.8V8.872H12.8V9.976H16.064C15.7864 11.1405 15.3418 12.2588 14.744 13.296C15.254 13.478 16.841 13.972 19.504 14.779C20.2071 12.8828 20.166 10.7908 19.389 8.92367C18.6119 7.05659 17.1566 5.55308 15.3158 4.71565C13.475 3.87823 11.3854 3.76904 9.46735 4.41005C7.54931 5.05106 5.94521 6.39471 4.9778 8.17064C4.0104 9.94656 3.75149 12.023 4.25316 13.9821C4.75484 15.9412 5.97987 17.6376 7.68177 18.73C9.38367 19.8224 11.4361 20.2297 13.4262 19.8699C15.4163 19.5102 17.1963 18.4101 18.408 16.791V16.79ZM12 22C6.477 22 2 17.523 2 12C2 6.477 6.477 2 12 2C17.523 2 22 6.477 22 12C22 17.523 17.523 22 12 22ZM8.432 16.368C9.872 16.368 11.256 15.496 12.392 14.016C10.784 13.24 9.448 12.856 7.952 12.856C6.648 12.856 5.968 13.656 5.848 14.272C5.728 14.888 6.096 16.368 8.432 16.368Z"/></g></g><defs><clipPath id="a"><rect width="24" height="24" fill="white"/></clipPath></defs></svg>

<svg width="24" height="24" fill="none" xmlns="http://www.w3.org/2000/svg"><g clip-path="url(#a)"><path d="M18.408 16.79c-2.173-.95-3.72-1.646-4.64-2.086-1.4 1.696-2.872 2.72-5.08 2.72S5 16.064 5.176 14.392c.12-1.096.872-2.888 4.128-2.576 1.72.16 2.504.48 3.912.944.36-.664.664-1.4.888-2.176H7.88v-.616h3.072V8.864H7.2v-.68h3.752V6.592s.032-.248.312-.248H12.8v1.848h4v.68h-4v1.104h3.264a12.413 12.413 0 0 1-1.32 3.32c.51.182 2.097.676 4.76 1.483a8 8 0 1 0-1.096 2.012v-.001ZM12 22C6.477 22 2 17.523 2 12S6.477 2 12 2s10 4.477 10 10-4.477 10-10 10Zm-3.568-5.632c1.44 0 2.824-.872 3.96-2.352-1.608-.776-2.944-1.16-4.44-1.16-1.304 0-1.984.8-2.104 1.416-.12.616.248 2.096 2.584 2.096Z" /></g><defs><clipPath id="a"><path fill="#fff" d="M0 0h24v24H0z"/></clipPath></defs></svg>
